X: 7857
T: Companion Star
R: hornpipe
M: 4/4
K: Amajor
CD AB, DF A,E|A6 z F|BA dc AF EF|A,6 z A,|
FE CD AC DF|BA dc BA dc|AF EF D4-|D3 z CD AB,|
DF A,E A4-|A2 z F BA dc|AF EF A,4-|A,2 z A, FE CD|
AC DF BA dc|BA dc AF EF|D7 z|d4 z A dc|A7 z|
d4 eA dc|A6 z A,|FE CD AC DF|BA dc BA dc|
AF EF D4-|D3 z d4|z A dc A4-|A4 d4|
eA dc A4-|A2 z A, FE CD|AC DF BA dc|BA dc AF EF|D7 z|

